X: 1			% número da peça
%%scale 1
T: 'Tava na peneira	% título
O: Popular		% origem
M: 2/4			% metro (compasso)
L: 1/8
K: D			% tonalidade
%
DD EF|G2B2|GE ED|F2A2|
w: 'Ta-va na pe-nei-ra~eu ta-va pe-nei-ran-do~oi
FD DB,|E2G2|ED B,D|F2D2:|
w: 'ta-va num na-mo-ro~eu ta-va na-mo-ran-do~oi